X:1
T:Over in the Glory-Land
T:Charles Huchinson Gabriel, 1894
T:Over in the Glory-Land
T:Public Domain
T:Public Domain
C:Charles Huchinson Gabriel, 1894
Z:Public Domain
%%score 1 ( 2 3 )
L:1/8
M:4/4
K:Ab
V:1 treble 
V:2 bass 
V:3 bass 
V:1
 [CE][CE] | [Ec]2 [Ec]2 [CA]2 [EA][EA] | [DF]2 [DA]2 [CE]4 | [CA][CA][CA][CA] [Ec]2 [Ee]2 | %4
w: 1.~We are|on our way to a|home on high,|O- ver in the glo- ry-|
w: 2.~We will|join the song that the|ran- somed sing,|O- ver in the glo- ry-|
w: 3.~When the|cares and tri- als of|earth are past,|O- ver in the glo- ry-|
w: 4.~With the|loved ones gone to that|shin- ing shore,|O- ver in the glo- ry-|
 [Ge]6 [Ed][Ed] | [Ec]2 [Ec]2 [CA]2 [EA][EA] | [DF]2 [DA]2 [CE]4 | [EA][EA][Fd][Fd] [Ec]2 [DB]2 | %8
w: land; There we’ll|meet and rest, in the|by and by,|O- ver in the glo- ry-|
w: land And for-|ev- er praise our e-|ter- nal King,|O- ver in the glo- ry-|
w: land; Je- sus|waits to crown us His|own at last,|O- ver in the glo- ry-|
w: land; We shall|meet, oh joy, meet to|part no more,|O- ver in the glo- ry-|
 [CA]6 z2 ||"^Refrain" [Ae][Ae][Ae][Ae] [Ae]2 [Af]2 | [Ae]8 | [Ec][Ec][Ec][Ec] [Ec]2 [EA]2 | %12
w: land.||||
w: land.|O- ver in the glo- ry-|land!|O- ver in the glo- ry-|
w: land.||||
w: land.||||
 [EB]6 [EB][Ec] | [Ed]2 [Ed]2 [Ed]2 [EB][Ed] | [Ec]2 [Ed]2 [Ae]4 | [Ae][Af][Ae][Ad] [Ac]2 [EB]2 | %16
w: ||||
w: land! There with|all the blest we shall|meet and rest,|O- ver in the glo- ry-|
w: ||||
w: ||||
 [EA]6 |] %17
w: |
w: land.|
w: |
w: |
V:2
 [A,,A,][A,,A,] | [A,,A,]2 [A,,A,]2 [A,,E,]2 [C,A,][C,A,] | [D,A,]2 [F,A,]2 A,4 | %3
 [A,,A,][A,,A,][A,,A,][A,,A,] A,2 [A,C]2 | [E,B,]6 [E,B,][E,B,] | %5
 [A,,A,]2 [A,,A,]2 [A,,E,]2 [C,A,][C,A,] | [D,A,]2 [F,A,]2 A,4 | %7
 [C,A,][C,A,][D,A,][D,A,] [E,A,]2 [E,G,]2 | [A,,A,]6 z2 || [A,C][A,C][A,C][A,C] [A,C]2 [A,D]2 | %10
 [A,C]8 | A,A,A,A, A,2 [C,A,]2 | [E,G,]6 [E,G,][E,A,] | [E,B,]2 [E,B,]2 [E,B,]2 [E,G,][E,B,] | %14
 A,2 [A,B,]2 [A,C]4 | [A,C][A,D][C,E][D,F] [E,E]2 [E,D]2 | [A,,C]6 |] %17
V:3
 x2 | x8 | x4 A,4 | x4 A,2 x2 | x8 | x8 | x4 A,4 | x8 | x8 || x8 | x8 | A,A,A,A, A,2 x2 | x8 | x8 | %14
 A,2 x6 | x8 | x6 |] %17

